icons/talk.svg

<?xml version="1.0" encoding="utf-8"?>
<svg xmlns="http://www.w3.org/2000/svg" viewBox="0 0 16 16" fill="#ffffff"><path d="M 2.5 2 C 1.675781 2 1 2.675781 1 3.5 L 1 11.5 C 1 12.324219 1.675781 13 2.5 13 L 4 13 L 4 15.433594 L 7.652344 13 L 12.5 13 C 13.324219 13 14 12.324219 14 11.5 L 14 3.5 C 14 2.675781 13.324219 2 12.5 2 Z M 2.5 3 L 12.5 3 C 12.78125 3 13 3.21875 13 3.5 L 13 11.5 C 13 11.78125 12.78125 12 12.5 12 L 7.347656 12 L 5 13.566406 L 5 12 L 2.5 12 C 2.21875 12 2 11.78125 2 11.5 L 2 3.5 C 2 3.21875 2.21875 3 2.5 3 Z" fill="#ffffff"/></svg>

<?xml version="1.0" encoding="utf-8"?>
<!-- Generator: Adobe Illustrator 25.2.3, SVG Export Plug-In . SVG Version: 6.00 Build 0)  -->
<svg version="1.1" id="Layer_1" xmlns="http://www.w3.org/2000/svg" xmlns:xlink="http://www.w3.org/1999/xlink" x="0px" y="0px"
	 viewBox="0 0 16 16" style="enable-background:new 0 0 16 16;" xml:space="preserve">
<style type="text/css">
	.st0{fill:#111111;}
</style>
<path class="st0" d="M2.5,2C1.7,2,1,2.7,1,3.5v8C1,12.3,1.7,13,2.5,13H4v2.4L7.7,13h4.8c0.8,0,1.5-0.7,1.5-1.5v-8
	C14,2.7,13.3,2,12.5,2H2.5z M2.5,3h10C12.8,3,13,3.2,13,3.5v8c0,0.3-0.2,0.5-0.5,0.5H7.3L5,13.6V12H2.5C2.2,12,2,11.8,2,11.5v-8
	C2,3.2,2.2,3,2.5,3z"/>
</svg>
